img/ico/home-advantage-economy-icon.svg

<svg width="60" height="60" viewBox="0 0 60 60" fill="none" xmlns="http://www.w3.org/2000/svg">
<circle cx="30" cy="30" r="30" fill="#FF5147"/>
<g clip-path="url(#clip0_667_3531)">
<path d="M43.8873 35.3685C43.3161 35.325 42.1303 35.9707 41.8012 36.1322C40.6401 36.7158 39.0383 37.6285 37.9828 38.3549C37.9083 38.4046 37.809 38.4729 37.7344 38.5163C37.2626 38.8205 36.7597 39.0254 36.2009 39.1434C33.1338 39.7953 28.6634 39.8698 28.6634 39.8698L28.4027 39.8822C28.204 39.8947 28.0302 39.7581 28.0053 39.5656C27.9743 39.3545 28.1295 39.162 28.3468 39.1434L34.9964 38.5101C35.729 38.4294 36.3126 37.7464 36.2319 36.9765C36.1512 36.2067 35.4434 35.6417 34.7108 35.7224L28.8 35.6479C28.3965 35.6417 27.7508 35.5423 27.3658 35.4306C23.5536 34.3192 21.4054 35.3623 20.263 35.8466C20.0084 35.4244 19.5241 35.1512 18.984 35.1884L16.4322 35.3561C15.5816 35.4119 14.9421 36.1197 15.0042 36.9393L15.4139 42.6017C15.4698 43.4212 16.2087 44.0359 17.0531 43.98L19.6049 43.8124C20.145 43.7751 20.5796 43.4461 20.7721 42.9928L31.9727 43.4771C33.2207 43.6075 34.3879 43.4585 35.4869 42.8811L35.8097 42.7134L44.2723 37.7588C44.6883 37.5167 44.9863 37.0945 44.9987 36.6226C45.0235 36.0576 44.6945 35.4244 43.8873 35.3685ZM17.9906 42.6389C17.5125 42.6389 17.1214 42.2664 17.1214 41.8008C17.1214 41.3351 17.5125 40.9626 17.9906 40.9626C18.4687 40.9626 18.8598 41.3351 18.8598 41.8008C18.8598 42.2664 18.4687 42.6389 17.9906 42.6389Z" fill="white"/>
<path d="M37.8586 37.1318C38.7216 36.5295 40.4911 35.5672 41.4907 35.0643C41.795 34.9153 42.1116 34.76 42.4531 34.6421C42.0185 34.3503 41.5528 34.3378 41.0685 34.5241C40.1186 34.9028 38.3677 35.7472 37.4737 36.2315C37.4675 36.2439 37.4612 36.2563 37.4612 36.2688C37.5233 36.455 37.573 36.6475 37.5916 36.8462C37.6103 37.0076 37.604 37.1628 37.5978 37.318C37.6786 37.256 37.7655 37.1939 37.8586 37.1318Z" fill="white"/>
<path d="M40.1434 33.9591C39.7088 33.6797 39.2494 33.6673 38.7775 33.8535C38.1877 34.0833 36.8776 34.5117 36.294 34.8221C36.5424 34.9773 36.7659 35.1698 36.9583 35.3933C36.9956 35.3685 37.0328 35.3374 37.0763 35.3126L37.5047 35.0767C38.1256 34.7352 39.4605 34.2633 40.1434 33.9591Z" fill="white"/>
<path d="M39.2928 22.9447C40.9506 22.2369 42.1178 20.5854 42.1178 18.6669C42.1178 16.0965 40.0317 14.0165 37.4674 14.0165C34.9032 14.0165 32.8171 16.1027 32.8171 18.6669C32.8171 18.6917 32.8233 18.7166 32.8233 18.7414C35.5862 19.0332 37.9579 20.6537 39.2928 22.9447Z" fill="white"/>
<path d="M31.9354 33.9653C35.6669 33.9653 38.6906 30.9416 38.6906 27.2102C38.6906 23.4787 35.6669 20.455 31.9354 20.455C28.204 20.455 25.1803 23.4787 25.1803 27.2102C25.1803 30.9416 28.204 33.9653 31.9354 33.9653ZM29.5761 29.8799C29.6382 29.6564 29.7003 29.4329 29.7686 29.2156C29.8493 28.961 29.9176 28.93 30.1535 29.0479C30.5571 29.259 30.9793 29.3708 31.4263 29.4267C31.7119 29.4639 31.9975 29.4329 32.2583 29.3149C32.755 29.0976 32.8357 28.5202 32.4135 28.1787C32.2707 28.0608 32.1093 27.9738 31.9416 27.8993C31.507 27.7069 31.0538 27.5641 30.6378 27.3157C29.9735 26.9183 29.5451 26.3658 29.5947 25.5586C29.6506 24.6397 30.1721 24.0685 31.0103 23.7643C31.358 23.6401 31.358 23.6401 31.3642 23.28C31.3642 23.1558 31.3642 23.0317 31.3642 22.9137C31.3704 22.6405 31.4201 22.5908 31.6871 22.5846C31.774 22.5846 31.8547 22.5846 31.9416 22.5846C32.5191 22.5846 32.5191 22.5846 32.5253 23.162C32.5253 23.5718 32.5253 23.5718 32.935 23.6401C33.2455 23.6898 33.5497 23.7829 33.8353 23.9071C33.9967 23.9754 34.0526 24.0871 34.0092 24.2548C33.9347 24.5031 33.8664 24.7577 33.7856 25.006C33.7111 25.242 33.6366 25.273 33.4069 25.1675C32.9537 24.9502 32.4756 24.857 31.9789 24.8819C31.8485 24.8881 31.7181 24.9067 31.6002 24.9626C31.1655 25.1488 31.0972 25.6269 31.4636 25.9249C31.6498 26.0739 31.8609 26.1795 32.0844 26.2726C32.4694 26.4341 32.8543 26.5831 33.2144 26.7817C34.3755 27.4212 34.6859 28.8803 33.8664 29.8675C33.5683 30.2276 33.1896 30.4698 32.7426 30.5877C32.5501 30.6436 32.457 30.7429 32.4694 30.9478C32.4756 31.1465 32.4694 31.3452 32.4694 31.5439C32.4694 31.7239 32.3763 31.8171 32.2024 31.8233C31.9851 31.8295 31.774 31.8295 31.5567 31.8233C31.3704 31.8171 31.2773 31.7115 31.2773 31.5315C31.2773 31.3886 31.2773 31.2396 31.2711 31.0968C31.2649 30.774 31.2587 30.7616 30.9482 30.7119C30.5509 30.6498 30.1659 30.5567 29.7996 30.3828C29.5202 30.2524 29.4954 30.1779 29.5761 29.8799Z" fill="white"/>
</g>
<defs>
<clipPath id="clip0_667_3531">
<rect width="30" height="30" fill="white" transform="translate(15 14)"/>
</clipPath>
</defs>
</svg>

<svg width="60" height="60" viewBox="0 0 60 60" fill="none" xmlns="http://www.w3.org/2000/svg" class="svg-icon">
    <circle cx="30" cy="30" r="30" fill="currentColor" />
    <path fill="#fff"
        d="M43.887 35.369c-.57-.044-1.757.602-2.086.763-1.16.584-2.763 1.497-3.818 2.223-.075.05-.174.118-.249.161-.471.305-.974.51-1.533.627-3.067.652-7.538.727-7.538.727l-.26.012a.37.37 0 1 1-.056-.739l6.65-.633a1.413 1.413 0 0 0 1.235-1.533c-.08-.77-.789-1.335-1.521-1.255l-5.911-.074a6.6 6.6 0 0 1-1.434-.217c-3.812-1.112-5.96-.069-7.103.416a1.38 1.38 0 0 0-1.279-.659l-2.552.168c-.85.056-1.49.764-1.428 1.583l.41 5.663c.056.82.795 1.434 1.64 1.378l2.55-.168c.541-.037.976-.366 1.168-.82l11.2.485c1.249.13 2.416-.018 3.515-.596l.323-.168 8.462-4.954c.416-.242.714-.665.727-1.136.024-.565-.305-1.199-1.112-1.255m-25.896 7.27c-.479 0-.87-.373-.87-.838 0-.466.392-.838.87-.838s.869.372.869.838-.391.838-.87.838" />
    <path fill="#fff"
        d="M37.859 37.132c.863-.602 2.632-1.565 3.632-2.068.304-.149.62-.304.962-.422-.434-.292-.9-.304-1.385-.118-.95.379-2.7 1.223-3.594 1.707q-.011.019-.013.038c.062.186.112.379.13.577.02.162.013.317.007.472q.121-.093.26-.186M40.143 33.96c-.434-.28-.894-.293-1.365-.107-.59.23-1.9.659-2.484.97.248.154.472.347.664.57.038-.025.075-.056.118-.08l.429-.236c.62-.342 1.956-.814 2.638-1.118M39.293 22.945a4.652 4.652 0 0 0-1.825-8.928 4.656 4.656 0 0 0-4.65 4.65c0 .025.005.05.005.074a8.54 8.54 0 0 1 6.47 4.204M31.935 33.965a6.754 6.754 0 0 0 6.756-6.755 6.754 6.754 0 0 0-6.756-6.755 6.754 6.754 0 0 0-6.755 6.755 6.754 6.754 0 0 0 6.755 6.755m-2.359-4.085q.091-.337.193-.664c.08-.255.149-.286.385-.168.403.211.825.323 1.272.379.286.037.572.006.832-.112.497-.217.578-.795.155-1.136a2 2 0 0 0-.471-.28c-.435-.192-.888-.335-1.304-.583-.665-.398-1.093-.95-1.043-1.757.056-.92.577-1.49 1.415-1.795.348-.124.348-.124.354-.484v-.366c.006-.274.056-.323.323-.33h.255c.577 0 .577 0 .583.578 0 .41 0 .41.41.478.31.05.615.143.9.267.162.068.218.18.174.348-.074.248-.143.503-.223.751-.075.236-.15.267-.38.162a2.9 2.9 0 0 0-1.427-.286 1 1 0 0 0-.379.08c-.434.187-.503.665-.136.963.186.149.397.255.62.348.385.161.77.31 1.13.509 1.162.64 1.472 2.098.652 3.085-.298.36-.676.603-1.123.72-.193.057-.286.156-.274.36.007.2 0 .398 0 .597 0 .18-.093.273-.267.28a11 11 0 0 1-.645 0c-.187-.007-.28-.113-.28-.293 0-.142 0-.291-.006-.434-.006-.323-.012-.335-.323-.385a4.1 4.1 0 0 1-1.148-.33c-.28-.13-.305-.204-.224-.502" />
</svg>
